X:1
T:VICTORY
T:VICTORY
T:ADELINE SHEPHERD
T:Copyright 1918 by Mrs. F S Olson
T:Copyright 1918 by Mrs. F S Olson
T:Copyright 1918 by Mrs. F S Olson
T:Copyright 1918 by Mrs. F S Olson
C:ADELINE SHEPHERD
Z:Copyright 1918 by Mrs. F S Olson
%%score { 1 | 2 }
L:1/8
Q:1/4=160
M:6/8
K:F
V:1 treble nm="Piano" snm="Pno."
V:2 bass 
V:1
"^March time"!f! !>![Cc]!>![Dd]!>![^D^d] !>![Ee] z z | [cegc']2 z [cegc']2 z | %2
 !>![Ee]!>![Ff]!>![^F^f] !>![Gg] z z | [cegc']2 z [cegc']2 z | %4
 !>![Gg]!>![^G^g]!>![Aa]"^Composer of \"Pickles and Peppers\" etc." !>![Bb]2 !>![Gg] | %5
 !>![Ee]2 !>![Gg] !>![Dd]2 !>![Gg] | !>![_D_d]2 !>![Gg] !>![Cc]3 | %7
 !fermata![cegc']2!p! ([Ac] [^G=B]2 [=G_B] | [FA]) z z !>![FA]3- | [FA]2 [cfa] ([cfa]^ga) | %10
 [Acf] z z !>![Acf]3- | [Acf]2 ([fa] [gb]2 [^g=b]) | .c'.f'.c' .a.c'.a | .f.a.f c2 f | c'bg e3- | %15
 e2 ([ce] [df]2 [^d^f] | [eg]) z z !>![eg]3- | [eg]2 [eg] [eg][ea][eb] | [ebd'] z z !>![ebd']3- | %19
 [ebd']2!8va(! [bd'] [be']2 [bf'] | [be'a']3 [be'g']3 | [be']3 [bc']3!8va)! | ac'a f2 f | %23
 c2 c fcB | [FA] z z !>![FA]3- | [FA]2 [cfa] ([cfa]^ga) | [Acf] z z !>![Acf]3- | %27
 [Acf]2 ([fa] [gb]2 [^g=b] | .c').f'.c' .a.c'.a | .f.a.f c2 f |{/f} f'3 [bd']3- | %31
 [bd']2!8va(! [bd'] [bd']^c'[bd'] | [d'f']3 [bd']3- | [bd']2 [d'f'] [d'f'][c'e'][bd'] | %34
 [ac']3 [fa]3- | [fa]2!8va)! [ca] [=B^g]2 [ca] | [ec']3 [db]3 | [ca]3 [Bg]3 | [Af]2 c dcA | %39
 F2 z [FAcf] z z |!mf! [Aa]>[Bb]!<(![=B=b] [cc']>[dd'][ee'] | %41
!8va(! [ff']>[gg'][^g^g'] [aa']>[bb'][=b=b'] | [c'c''][d'd''][aa'] [c'c'']3- | %43
 [c'c'']!<)!!8va)!!p!ab c'd'f | c'bg e3- | ecd edc | faf dzd | czc fcB | %48
!mf! [Aa]>[Bb]!<(![=B=b] [cc']>[dd'][ee'] |!8va(! [ff']>[gg'][^g^g'] [aa']>[bb'][=b=b'] | %50
 [c'c''][d'd''][aa'] [c'c'']3- | [c'c'']!<)!!8va)!!p!ab c'd'f | c'bg e3- | ecd edc | f2 c ffc | %55
 f2 f fe_e ||[K:Bb]!p! [dd']>[ee'][=e=e']!<(! [ff']>[gg'][aa'] | %57
!8va(! [bb']>[c'c''][^c'^c''] [d'd'']>[e'e''][=e'=e''] | [f'f''][g'g''][d'd''] [f'f'']3- | %59
 [f'f'']!<)!!8va)!!p!d'e' f'g'b | f'e'c' a3- | afg agf | bd'b gzg | fzf bfe | %64
!p! [dd']>[ee'][=e=e']!<(! [ff']>[gg'][aa'] | %65
!8va(! [bb']>[c'c''][^c'^c''] [d'd'']>[e'e''][=e'=e''] | [f'f''][g'g''][d'd''] [f'f'']3- | %67
 [f'f'']!<)!!8va)!!p!d'e' f'g'b | f'e'c' a3- | afg agf | b2!f! f bbf | b z z [Bdfb] z || %72
"^TRIO"!ff!!8va(! f | b2 b bfb | d'2 d' d'bd' | f'2 f' f'd'b | f3- f!8va)! z !>![Gg] | %77
 !>![Ff]2 z z2 !>![Gg] | !>![Ff]2 z z2 !>![Gg] | !>![ff']gf _ecA | [Ff][Ff][Ff] [Ff][Ff][Ff] | %81
 [FAcf][FAcf][FAcf] [FAcf][FAcf][FAcf] | [FAcf][FAcf][FAcf] [FAcf][FAcf][FAcf] | %83
 [FAcf][FAcf][FAcf] [FAcf][FAcf][FAcf] |!>(! [FAcf][ff'][ff'] [ff'][ff'][ff']!>)! || %85
!p! [bd']3- [bd'][ad'][gd'] | [fd']3 [db]2 [df] |!8va(! [f'a']3 [e'g']3 | [d'f']3- [d'f']!8va)!ff | %89
 [bd']3- [bd'][ad'][gd'] | [fd']3 [db]2 [df] | [=ebd']3 [eac']3 | [_eac']6 | %93
 [bd']3- [bd'][ad'][gd'] | [fd']3 [db]2 [df] |!8va(! [f'a']3 [e'g']3 | [d'f']3-!8va)! [df]2 f | %97
 [bd']g[bd'] g2 z | [Bd]G[Bd] G2 z | [ef]F[ef] F[ef]F | [Bdfb] z z [Bdfb] z z || %101
[K:Eb][K:bass]!mp! z2 [G,B,E] z2 [G,B,E] | z2 [G,B,E] [G,B,E]z[G,B,E] | z2 [A,CE] z2 [A,CE] | %104
 z2 [G,B,E] [G,B,E]z[G,B,E] |[K:treble]!8va(! [bb']2 [ff'] [ff'][=e=e'][ff'] | %106
 [c'c'']2 [gg'] [gg']2!8va)! e | dfd cec | BB[ab] B2 z |[K:bass]!mp! z2 [G,B,E] z2 [G,B,E] | %110
 z2 [G,B,E] [G,B,E]z[G,B,E] | z2 [A,CE] z2 [A,CE] | z2 [G,B,E] [G,B,E]2[K:treble] !>![B,B] | %113
 !>![Cc]2 !>![Dd] !>![Ee]2 !>![Ff] | !>![^F^f]!>![Gg]!>![Ee] !>![Cc]2 [cc'] | B[ab]B B[ab]B | %116
 [ege']2 ([GB] [^F=A]2 [=F_A] | [EG]) z z [EG]3- | [EG]2 [Beg] ([Beg]^fg) | [GBe] z z !>![GBe]3- | %120
 [GBe]2 ([eg] [fa]2 [^f=a]) | .b.e'.b .g.b.g | .e.g.e .B2 .e | .b.a.g d3- | d2 ([Bd] [ce]2 [^c=e] | %125
 .[df]) z z [df]3- | [df]2 [df] [df][dg][df] | .[dac'] z z [dac']3- | %128
 [dac']2!8va(! ([ac'] [ad']2 [ae'] | [ad'g']3) [ad'f']3 | [ad']3 [ab]3!8va)! | gbg e2 e | %132
 B2 B eBA | [EG] z z !>![EG]3- | [EG]2 [Beg] ([Beg]^fg) | [GBe] z z !>![GBe]3- | %136
 [GBe]2 ([eg] [fa]2 [^f=a]) | .b.e'.b .g.b.g | .e.g.e .B2 .e |{/e} e'3 [ac']3- | %140
 [ac']2!8va(! [ac'] [ac']=bc' | [c'e']3 [ac']3- | [ac']2 [c'e'] [c'e'][bd'][ac'] | [gb]3 [eg]3- | %144
 [eg]2!8va)! [Bg] [=A^f]2 [Bg] | [Bdb]3 [Aca]3 | [GBg]3 [FAf]3 | [EGe]2 [B,B] [Ee][Ee][B,B] | %148
 [Ee] z z [egbe'] z z || %149
V:2
 !>![C,,C,]!>![D,,D,]!>![^D,,^D,] !>![E,,E,] z z |[K:treble] [CEGB]2 z [CEGB]2 z | %2
[K:bass] !>![E,,E,]!>![F,,F,]!>![^F,,^F,] !>![G,,G,] z z |[K:treble] [CEGB]2 z [CEGB]2 z | %4
[K:bass] !>![G,,G,]!>![^G,,^G,]!>![A,,A,] !>![B,,B,]2 !>![G,,G,] | %5
 !>![E,,E,]2 !>![G,,G,] !>![D,,D,]2 !>![G,,G,] | !>![_D,,_D,]2 !>![G,,G,] !>![C,,C,]3 | %7
[K:treble] !fermata![CEGB]2 z z2 z |[K:bass] [F,,F,]2 [A,CF] C,2 [A,CF] | %9
 [F,,F,]2 [A,CF] C,2 [A,CF] | [F,,F,]2 [A,CF] C,2 [A,CF] | [F,,F,]2 [A,CF] C,2 [A,CF] | %12
 [F,,F,]2 [A,CF] C,2 [A,CF] | [F,,F,]2 [A,CF] [A,,A,]2 [_A,,_A,] | [G,,G,]2 [B,CE] C,2 [B,CE] | %15
 [G,,G,]2 [B,CE] C,2 [B,CE] | [G,,G,]2 [B,CE] C,2 [B,CE] | [G,,G,]2 [B,CE] C,2 [B,CE] | %18
 [G,,G,]2 [B,CE] C,2 [B,CE] | [G,,G,]2 [B,CE] C,2 [B,CE] | [G,,G,]2 [B,CE] C,2 [B,CE] | %21
 [G,,G,]2 [B,CE] C,2 [B,CE] | [F,,F,]2 [A,CF] C,2 [A,CF] | [F,,F,]2 [A,CF] C,2 [A,CF] | %24
 [F,,F,]2 [A,CF] C,2 [A,CF] | [F,,F,]2 [A,CF] C,2 [A,CF] | [F,,F,]2 [A,CF] C,2 [A,CF] | %27
 [F,,F,]2 [A,CF] C,2 [A,CF] | [F,,F,]2 [A,CF] C,2 [A,CF] | [F,,F,]2 [A,CF] C,2 [A,CF] | %30
 [B,,,B,,]2 [F,B,D] D,2 [F,B,D] | [B,,,B,,]2 [F,B,D] D,2 [F,B,D] | [B,,,B,,]2 [F,B,D] D,2 [F,B,D] | %33
 [B,,,B,,]2 [F,B,D] D,2 [F,B,D] | [F,,F,]2 [A,CF] [C,,C,]2 [A,CF] | %35
 [F,,F,]2 [A,CF] [C,,C,]2 [A,CF] | [G,,G,]2 [B,CE] C,2 [B,CE] | [G,,G,]2 [B,CE] C,2 [B,CE] | %38
 [F,,F,]2 C DCA, | F,2 z [F,,F,] z z | [F,,F,]2"^cresc" [A,CF] C,2 [A,CF] | %41
 [F,,F,]2 [A,CF] C,2 [A,CF] | [F,,F,]2 [A,CF] C,2 [A,CF] | %43
 [F,,F,]2 [A,CF] !>![A,,A,]2 !>![_A,,_A,] | [G,,G,]2 [B,CE] C,2 [B,CE] | %45
 [G,,G,]2 [B,CE] C,2 [B,CE] | [F,,F,]2 [A,CF] C,2 [A,CF] | [F,,F,]2 [A,CF] C,2 [A,CF] | %48
 [F,,F,]2"^cresc" [A,CF] C,2 [A,CF] | [F,,F,]2 [A,CF] C,2 [A,CF] | [F,,F,]2 [A,CF] C,2 [A,CF] | %51
 [F,,F,]2 [A,CF] !>![A,,A,]2 !>![_A,,_A,] | [G,,G,]2 [B,CE] C,2 [B,CE] | %53
 [G,,G,]2 [B,CE] C,2 [B,CE] | [F,,F,]2 C FFC | F2 F FE_E || %56
[K:Bb] [B,,,B,,]2"^cresc" [F,B,D] F,,2 [F,B,D] | [B,,,B,,]2 [F,B,D] F,,2 [F,B,D] | %58
 [B,,,B,,]2 [F,B,D] F,,2 [F,B,D] | [B,,,B,,]2 [F,B,D] !>![D,,D,]2 !>![_D,,_D,] | %60
 [C,,C,]2 [F,A,E] F,,2 [F,A,E] | [C,,C,]2 [F,A,E] F,,2 [F,A,E] | [B,,,B,,]2 [F,B,D] F,,2 [F,B,D] | %63
 [B,,,B,,]2 [F,B,D] F,,2 [F,B,D] | [B,,,B,,]2"^cresc" [F,B,D] F,,2 [F,B,D] | %65
 [B,,,B,,]2 [F,B,D] F,,2 [F,B,D] | [B,,,B,,]2 [F,B,D] F,,2 [F,B,D] | %67
 [B,,,B,,]2 [F,B,D] !>![D,,D,]2 !>![_D,,_D,] | !>![C,,C,]2 [F,A,E] F,,2 [F,A,E] | %69
 [C,,C,]2 [F,A,E] F,,2 [F,A,E] | [B,,B,]2 F, B,B,F, | B, z z [B,,B,] z || F | B2 B BFB | d2 d dBd | %75
 f2 f fdB | F3- F z z |[K:bass] z z !>![G,G] !>![F,F]2 z | z z !>![G,G] !>![F,F]2 z | [F,A,CE]6- | %80
 [F,A,CE] z z z2 z | !>![F,,F,]3- [F,,F,]!>![G,,G,]!>![^G,,^G,] | %82
 !>![A,,A,]3- [A,,A,]!>![B,,B,]!>![=B,,=B,] | !>![D,D]2 !>![C,C] !>![A,,A,]2 !>![G,,G,] | %84
 !>![F,,F,]2 z z2 z || [B,,,B,,]2 [F,B,D] F,,2 [F,B,D] | [B,,,B,,]2 [F,B,D] D,2 [F,B,D] | %87
 [E,,E,]2 [G,B,E] [G,,G,]2 [G,B,E] | [B,,,B,,]2 [F,B,D] F,,2 [F,B,D] | %89
 [B,,,B,,]2 [F,B,D] F,,2 [F,B,D] | [B,,,B,,]2 [F,B,D] D,2 [F,B,D] | [G,,G,]2 [B,C=E] [B,CE]2 z | %92
 F,,2 [F,A,C_E] [F,A,CE]2 z | [B,,,B,,]2 [F,B,D] F,,2 [F,B,D] | [B,,,B,,]2 [F,B,D] D,2 [F,B,D] | %95
 [E,,E,]2 [G,B,E] [G,,G,]2 [G,B,E] | [B,,,B,,]2 [F,B,D] F,,2 z |[K:treble] [Gd]2 [Gd] [Gd]2 z | %98
[K:bass] [G,D]2 [G,D] [G,D]2 z | [F,,F,]2 [E,,E,] [D,,D,]2 [C,,C,] | [B,,,B,,] z z [B,,,B,,] z z || %101
[K:Eb] !>!E,,3 !>!G,,3 | !>!B,,3- B,,!>!=A,,!>!B,, | !>!C,3 !>!E,3 | !>!B,,6 | %105
 [B,,,B,,]2 [A,B,D] [A,B,D]2 z | [E,,E,]2 [G,B,E] [G,B,E]2 z | [F,,,F,,]2 [F,B,D] F,,2 [F,=A,E] | %108
 B,,2 [F,B,D] [F,B,D]2 z | !>!E,,3 !>!G,,3 | !>!B,,3- B,,!>!=A,,!>!B,, | !>!C,3 !>!E,3 | %112
 !>!B,,3- B,,2 !>![B,,,B,,] | !>![C,,C,]2 !>![D,,D,] !>![E,,E,]2 !>![F,,F,] | %114
 !>![^F,,^F,]!>![G,,G,]!>![E,,E,] !>![C,,C,]2 z | [B,,B,]2 [A,,A,] [G,,G,]2 [F,,F,] | %116
 [E,,E,]2 z z2 z | [E,,E,]2 [G,B,E] [B,,,B,,]2 [G,B,E] | [E,,E,]2 [G,B,E] [B,,,B,,]2 [G,B,E] | %119
 [E,,E,]2 [G,B,E] [B,,,B,,]2 [G,B,E] | [E,,E,]2 [G,B,E] [B,,,B,,]2 [G,B,E] | %121
 [E,,E,]2 [G,B,E] [B,,,B,,]2 [G,B,E] | [E,,E,]2 [G,B,E] !>![G,,G,]2 !>![_G,,_G,] | %123
 !>![F,,F,]2 [A,B,D] B,,2 [A,B,D] | [F,,F,]2 [A,B,D] B,,2 [A,B,D] | [F,,F,]2 [A,B,D] B,,2 [A,B,D] | %126
 [F,,F,]2 [A,B,D] B,,2 [A,B,D] | [F,,F,]2 [A,B,D] B,,2 [A,B,D] | [F,,F,]2 [A,B,D] B,,2 [A,B,D] | %129
 [F,,F,]2 [A,B,D] B,,2 [A,B,D] | [F,,F,]2 [A,B,D] B,,2 [A,B,D] | [E,,E,]2 [G,B,E] B,,2 [G,B,E] | %132
 [E,,E,]2 [G,B,E] B,,2 [G,B,E] | [E,,E,]2 [G,B,E] B,,2 [G,B,E] | [E,,E,]2 [G,B,E] B,,2 [G,B,E] | %135
 [E,,E,]2 [G,B,E] B,,2 [G,B,E] | [E,,E,]2 [G,B,E] B,,2 [G,B,E] | [E,,E,]2 [G,B,E] B,,2 [G,B,E] | %138
 [E,,E,]2 [G,B,E] B,,2 [G,B,E] | [A,,,A,,]2 [E,A,C] C,2 [E,A,C] | [A,,,A,,]2 [E,A,C] C,2 [E,A,C] | %141
 [A,,,A,,]2 [E,A,C] C,2 [E,A,C] | [A,,,A,,]2 [E,A,C] C,2 [E,A,C] | %143
 [E,,E,]2 [G,B,E] [B,,,B,,]2 [G,B,E] | [E,,E,]2 [G,B,E] [B,,,B,,]2 [G,B,E] | %145
 [F,,F,]2 [A,B,D] [B,,,B,,]2 [A,B,D] | [F,,F,]2 [A,B,D] [B,,,B,,]2 [A,B,D] | %147
 [E,,E,]2 !>![B,,,B,,] [E,,E,]2 !>![B,,,B,,] | [E,,E,] z z [E,,E,] z z || %149

